source/img/svg/icon-client.svg

<svg width="30" height="30" viewBox="0 0 30 30" fill="none" xmlns="http://www.w3.org/2000/svg">
<path d="M12.1719 8.01404L8.3972 14.8084M8.3972 14.8084L11.0395 18.5831M8.3972 14.8084L6.59089 16.2134C5.69408 16.9109 5.48775 18.1823 6.11796 19.1277V19.1277C6.75998 20.0907 8.04519 20.3797 9.03767 19.7842L9.5296 19.489M11.0395 18.5831L11.7944 18.4992M11.0395 18.5831L9.5296 19.489M17.0789 17.8282L11.7944 18.4992M11.7944 18.4992L14.5784 22.8987C14.9147 23.4301 14.7476 24.1341 14.2084 24.4576V24.4576C13.7005 24.7623 13.0432 24.6188 12.7085 24.1302L9.5296 19.489" stroke="#EB5757"/>
<path d="M17.8363 11.4192C18.7011 12.8603 19.1846 14.3159 19.2851 15.4897C19.3888 16.7001 19.0815 17.4375 18.6061 17.7228C18.1307 18.0082 17.3354 17.9325 16.316 17.2716C15.3275 16.6308 14.2704 15.5194 13.4056 14.0783C12.5407 12.6373 12.0572 11.1817 11.9567 10.0079C11.853 8.79743 12.1603 8.06007 12.6357 7.77474C13.1112 7.48942 13.9064 7.56512 14.9258 8.22595C15.9143 8.86677 16.9714 9.97818 17.8363 11.4192Z" stroke="#EB5757"/>
<path d="M15.6609 14.6192C16.465 14.0699 16.6934 13.0048 16.1711 12.2402C15.6488 11.4757 14.5736 11.3012 13.7695 11.8505" stroke="#EB5757" stroke-linecap="round"/>
<path d="M18.4575 8.00824L18.7207 5" stroke="#EB5757" stroke-linecap="round"/>
<path d="M20.8532 9.6587L23.3857 8.01404" stroke="#EB5757" stroke-linecap="round"/>
<path d="M21.3798 12.4009L24.3701 12.8212" stroke="#EB5757" stroke-linecap="round"/>
</svg>

<svg width="30" height="30" fill="none" xmlns="http://www.w3.org/2000/svg"><path d="M12.172 8.014l-3.775 6.794m0 0l2.643 3.775m-2.643-3.775l-1.806 1.405a2.168 2.168 0 00-.473 2.915v0a2.168 2.168 0 002.92.656l.492-.295m1.51-.906l.754-.084m-.755.084l-1.51.906m7.55-1.66l-5.285.67m0 0l2.784 4.4a1.12 1.12 0 01-.37 1.559v0a1.12 1.12 0 01-1.5-.328L9.53 19.49m8.306-8.07c.865 1.44 1.349 2.896 1.45 4.07.103 1.21-.205 1.947-.68 2.233-.475.285-1.27.21-2.29-.451-.988-.641-2.046-1.753-2.91-3.194-.865-1.44-1.349-2.896-1.45-4.07-.103-1.21.204-1.948.68-2.233.475-.286 1.27-.21 2.29.45.988.642 2.045 1.753 2.91 3.194z" stroke="#EB5757"/><path d="M15.66 14.62c.805-.55 1.033-1.615.511-2.38-.522-.764-1.597-.939-2.401-.39m4.687-3.842L18.721 5m2.132 4.659l2.533-1.645M21.38 12.4l2.99.421" stroke="#EB5757" stroke-linecap="round"/></svg>
